!!!COM:	Japart, Jean
!!!CDT:	~1450//-~1507//
!!!OTL:	Et qui la dira / Dieu gard celle
!!!AGN:	Song; Chanson
!!!SCT:	Jap3005
!!!SCA:	Jap3005
!!!voices:	4
**kern	**kern	**kern	**kern
*staff4	*staff3	*staff2	*staff1
*Ivox	*Ivox	*Ivox	*Ivox
*I"Bassus	*I"Tenor	*I"Altus	*I"Discantus
*I'B	*I'T	*I'A	*I'D
*clefF4	*clefGv2	*clefGv2	*clefG2
*k[b-]	*k[b-]	*k[b-]	*k[b-]
*M2/1	*M2/1	*M2/1	*M2/1
*met(C|)	*met(C|)	*met(C|)	*met(C|)
=1-	=1-	=1-	=1-
0G	1G	0r	1.g
.	1G	.	.
.	.	.	2a
=2	=2	=2	=2
1E	1G	0r	1b-
1C	1E	.	2.cc
.	.	.	4b-
=3	=3	=3	=3
2D	1F	0r	2.a
2F	.	.	.
.	.	.	4b-
1E	1G	.	1g
=4	=4	=4	=4
0D	0A	0d	0f
=5	=5	=5	=5
0G	0r	1e	1g
.	.	1e	1b-
=6	=6	=6	=6
0F	1c	0f	2a
.	.	.	2.cc
.	1c	.	.
.	.	.	4b-
.	.	.	2a
=7	=7	=7	=7
1.G	1B-	0d	2g
.	.	.	2.b-
.	1G	.	.
.	.	.	4a
4F	.	.	2g
4E	.	.	.
=8	=8	=8	=8
0D	1A	1d	2f
.	.	.	1g
.	1A	1d	.
.	.	.	2f#i
=9	=9	=9	=9
1.E-i	[0G	0B-	1.g
2D	.	.	2f
=10	=10	=10	=10
2C	0G]	0c	2e
2BB-	.	.	2d
1C	.	.	1e
=11	=11	=11	=11
2GG	0r	1B-	[0d
1G	.	.	.
.	.	1A	.
2F#i	.	.	.
=12	=12	=12	=12
1G	0r	1G	0d]
1D	.	[1B-	.
=13	=13	=13	=13
1GG	1G	2B-]	1r
.	.	2A	.
1BB-	1G	[1G	[1dd
=14	=14	=14	=14
0AA	1A	1G]	1dd]
.	1A	1F#i	1cc
=15	=15	=15	=15
0GG	1B-	1G	1.b-
.	1B-	1r	.
.	.	.	4a
.	.	.	4g
=16	=16	=16	=16
0D	1A	1r	0f
.	1A	1d	.
=17	=17	=17	=17
1r	1G	1e	2g
.	.	.	2a
1G	1G	1e	[1b-
=18	=18	=18	=18
0F	1A	0f	2b-]
.	.	.	2a
.	1A	.	[1a
=19	=19	=19	=19
0G	1B-	0d	1a]
.	1B-	.	1g
=20	=20	=20	=20
0D	0A	1d	1a
.	.	1d	1a
=21	=21	=21	=21
1GG	0r	0B-	1r
1G	.	.	1b-
=22	=22	=22	=22
1A	0r	0c	2a
.	.	.	2b-
1F	.	.	2cc
.	.	.	[2a
=23	=23	=23	=23
1G	0r	1B-	4a]
.	.	.	4g
.	.	.	1g
1D	.	1A	.
.	.	.	2f#i
=24	=24	=24	=24
1GG	0r	1G	1g
1r	.	[1B-	1d
=25	=25	=25	=25
2.GG	0r	2B-]	1r
.	.	2A	.
4AA	.	.	.
2BB-	.	[1G	1g
[2C	.	.	.
=26	=26	=26	=26
4C]	0r	2G]	1a
4BB-	.	.	.
4AA	.	2F#i	.
4GG	.	.	.
1AA	.	2F#i	1cc
.	.	2E	.
=27	=27	=27	=27
0GG	0r	0G	2b-
.	.	.	1dd
.	.	.	4cc
.	.	.	4b-
=28	=28	=28	=28
0r	1A	1r	4cc
.	.	.	4b-
.	.	.	4a
.	.	.	4g
.	1d	1B-	2f
.	.	.	2g
=29	=29	=29	=29
0r	1d	1A	2a
.	.	.	1g
.	1c	1A	.
.	.	.	2f#i
=30	=30	=30	=30
1GG	1d	1.G	1g
[1G	1B-	.	[1b-
.	.	2A	.
=31	=31	=31	=31
1G]	0G	1B-	2b-]
.	.	.	2a
1C	.	1c	2g
.	.	.	4f
.	.	.	4e
=32	=32	=32	=32
1D	0r	1.A	0f
[1F	.	.	.
.	.	2B-	.
=33	=33	=33	=33
2F]	0r	0c	1r
4E	.	.	.
4D	.	.	.
1C	.	.	1e
=34	=34	=34	=34
0D	1A	0r	1.f
.	1B-	.	.
.	.	.	2g
=35	=35	=35	=35
1C	1c	1r	2e
.	.	.	1g
1D	1A	1d	.
.	.	.	2f#i
=36	=36	=36	=36
0GG	1G	1d	2g
.	.	.	2.b-
.	1G	1d	.
.	.	.	4cc
.	.	.	[2dd
=37	=37	=37	=37
0D	0F	1A	4dd]
.	.	.	4cc
.	.	.	2.a
.	.	[1d	.
.	.	.	4g
.	.	.	2a
=38	=38	=38	=38
1G	0r	1d]	1b-
2A	.	1c	2cc
2F	.	.	[2a
=39	=39	=39	=39
1G	0r	0B-	2a]
.	.	.	4g
.	.	.	4f
2.G	.	.	1g
4F	.	.	.
=40	=40	=40	=40
1D	0r	0A	0a
1AA	.	.	.
=41	=41	=41	=41
1BB-	1G	0r	1d
1C	1G	.	1e
=42	=42	=42	=42
1GG	1G	0r	2d
.	.	.	2.g
1C	1E	.	.
.	.	.	4f
.	.	.	[2e
=43	=43	=43	=43
2D	1F	1d	2e]
2F	.	.	1d
1E	1G	1e	.
.	.	.	2c#i
=44	=44	=44	=44
1D	0A	1f	1d
2.D	.	1d	1r
4E	.	.	.
=45	=45	=45	=45
1F	0r	1c	1a
1G	.	1B-	1b-
=46	=46	=46	=46
1D	0r	1r	2.a
.	.	.	4g
1C	.	1c	2a
.	.	.	[2g
=47	=47	=47	=47
1D	0r	2B-	2g]
.	.	2A	2f#i
2GG	.	2G	1g
[2G	.	[2B-	.
=48	=48	=48	=48
2G]	1d	4B-]	1b-
.	.	4A	.
2G	.	1G	.
1D	1d	.	1a
.	.	2F#i	.
=49	=49	=49	=49
2.E-i	1B-	1G	2g
.	.	.	2.b-
4D	.	.	.
2E-i	1G	1r	.
.	.	.	4a
[2C	.	.	[2cc
=50	=50	=50	=50
2C]	1A	1r	4cc]
.	.	.	4b-
2C	.	.	4a
.	.	.	4g
1D	1A	1d	2.f#i
.	.	.	4e
=51	=51	=51	=51
0GGl	0Gl	0dl	0gl
==	==	==	==
*-	*-	*-	*-
!!!RDF**kern: l=long note in original notation
!!!RDF**kern: i=editorial accidental
!!!ENC:	Chris Gage 09-04-2013
!!!END:	2013/10/23/
!!!EED:	Jesse Rodin
!!!EEV:	2013/12/19/
!!!ONB:	Translated from MusicXML and edited on 2013/12/19/ by Craig Sapp
!!muse2ps: C^@{COM}^i2I150v85,85,85,100Q16c110
